streetfighter/_inc/system.svg

<svg xmlns="http://www.w3.org/2000/svg"><g stroke-width="1.874"><path d="m501.492 135.357c-4.227 1.407-8.901 2.349-13.593 3.288-8.922 1.878-19.278 4.701-30.072 7.521-11.268 2.814-23.478 6.108-35.676 9.396-5.637 1.878-10.776 3.729-16.422 5.136-40.377 12.21-78.888 25.854-97.674 33.834-4.227 1.878-7.05 3.759-8.928 4.698-3.756 2.817-8.928 10.776-8.928 10.776l-4.698 9.399s10.344-5.643 22.554-10.806c14.082-6.105 30.513-11.709 35.205-7.017 6.573 6.102-9.864 75.099-3.759 133.32 1.878-6.102 3.759-4.665 3.759-4.665l7.518 15.006 3.759-6.579 9.399 19.266.468-11.277 2.82 2.352c-3.408-33.684-.603-146.757 11.628-159.987 3.756-3.756 14.103-8.463 26.784-12.693 5.166-1.878 10.776-3.759 16.419-5.169 12.681-3.756 25.824-7.047 35.676-9.396l18.795-4.668s2.826-7.521 11.28-11.277c1.407-.468 2.349-.939 3.288-.939 0 0-3.312-5.172 10.305-9.399zm-13.593 29.571c-7.983.471-18.804 2.352-30.072 5.169-12.681 2.817-25.824 6.582-35.676 9.867-3.288.942-6.582 2.352-8.928 2.82 11.268 4.695 8.457 10.806 8.457 10.806l.471.471 7.05 4.698s6.582-1.878 12.69-2.349c3.285 35.685-1.881 75.12-1.881 75.12l-17.823 4.23h-.03l-1.848.471 1.848 2.757v.06l10.806 12.651-1.41 6.111 3.759-.471s-1.887 15.486-13.152 35.676v.063c-2.34 4.674-5.157 9.363-8.895 14.505 2.34.936 5.616.462 8.895-.471.009-.003.021.003.03 0 6.093-1.878 11.718-5.169 11.718-5.169l20.643-7.047v5.169l3.288-1.881 4.698-2.817s11.748-26.274 11.748-54.912c0 0 6.585-1.884 13.623-6.111 3.288-1.407 6.552-3.759 9.837-6.576 24.891 28.167 42.261 55.884 42.261 55.884l8.928-.939 2.349-6.111 8.46.942 1.878-3.759.942 1.407 8.457 6.579 4.698-5.637 6.549 1.407s-7.497-7.995-19.707-21.141c-11.268-12.207-27.237-29.109-44.61-46.491 7.515-6.573 16.452-14.556 17.382-35.676.471-23.007-13.611-46.491-41.319-49.308zm-8.961 23.436c3.186-.051 6.189.387 8.961 1.005 9.861 2.814 15.948 10.314 15.948 20.637-.939 13.614-7.962 23.499-15.948 30.075-3.756 3.285-7.992 6.078-11.277 7.488 0 0-1.413-34.725-2.82-58.674 1.293-.234 2.526-.396 3.759-.471.462-.027.924-.054 1.38-.06zm-198.579 6.606c-2.346.942-4.698 1.41-7.047 2.352v.03c-16.431 5.166-31.929 10.305-44.61 15.006-19.245 7.515-31.917 13.152-31.917 13.152l1.38-8.928s-12.189 7.989-23.937 9.87c-4.311.48-8.622.48-11.829-1.395-18.345 6.576-93.465 53.028-108.462 76.083-2.349 9.393-11.748 24.9-11.748 24.9l-6.579 20.64 4.698-.471-5.166 10.335 4.23-1.407v6.108s23.004-30.996 44.136-48.837c-2.817 16.428-2.82 32.859-2.82 32.859l-7.047 7.518-7.017 14.565h5.607l-.471 5.64 4.698-2.352-1.878 6.549h3.759s.942 23.034 3.759 36.177l15.036 5.136 2.352-2.787 8.457 6.546 6.546-5.169s-2.349-44.586-1.407-63.843c7.512-7.983 33.831-22.995 33.831-22.995l2.349-8.46-3.759-9.396 9.834-14.565c-18.783 9.861-41.79 23.967-41.79 23.967s2.352-30.984 5.64-36.618c3.285-5.637 24.888-19.278 54.942-36.651 16.431-9.39 34.755-18.774 54.471-29.1 14.556-7.041 29.58-14.073 44.607-21.108v-.033c2.349-.939 4.701-2.349 7.05-3.288zm150.264 8.928-47.895 14.094-2.82 106.557 25.842-7.515 14.535-4.701v-28.629l-20.169 2.82.471-15.039 5.169-1.41 13.122-4.227-.471-5.64 4.23-15.477-16.881 4.2-5.169 1.407 1.41-15.477 3.759-.939 5.262-1.536 13.503-3.633 4.701-6.108-4.701-1.881zm-105.255 23.487s-4.701 10.335-9.396 2.82c-1.41 5.163-5.172 7.05-7.989 7.518-1.881 0-3.291 0-3.291 0l-1.407 34.272-10.806 4.698 3.288-37.56-5.169 4.701-4.23-4.701-7.485 11.247-2.352-4.23-3.288 2.82-2.349 2.349s-7.986 68.568-5.169 98.619c3.288-3.756 4.701 2.82 4.701 2.82l2.817-3.759.939-1.41 7.989 18.795 3.258-11.277 5.169 2.349v-53.538l12.219-3.759.471 46.491 4.698 2.352 5.112 2.304 1.002-6.114 12.633 13.632s-5.163-77.949 2.817-129.612c-2.817 2.817-4.197-1.881-4.197-1.881zm-65.256 20.61s-15.489 3.297-31.458 12.219c-16.428 9.39-33.801 25.833-35.205 52.128-2.817 42.732 29.571 38.964 35.205 38.502.471 0 1.41-.471 1.41-.471v21.141l1.881-5.166 3.759 2.349 5.607-3.291 6.576 5.169 1.005-4.11 4.227.942 1.881-55.416 8.457-3.288-1.878-17.853-32.862 14.094-7.047 2.82 7.047 11.748.471.468 3.759-.939v8.457s-1.881.471-4.23.471c-4.695-.939-12.69-3.771-11.745-18.324.468-10.326 5.64-17.361 11.745-22.524 9.864-7.983 22.998-11.748 28.632-16.449l-4.23-1.881 6.108-2.82zm-79.353 22.554c-1.878 5.634-4.23 9.87-6.579 12.69-4.695 7.515-9.867 9.837-9.867 9.837s-10.335 44.148-6.579 92.976l3.759-1.881 3.762 3.288 3.759-1.407s2.349 5.169 5.166 8.457c2.817 2.817 6.111 4.227 9.399 2.349 2.346-1.407-3.282-69.477 7.989-113.172 0 0-6.114 5.154-10.809-13.152z" fill="#fff"/><path d="m533.571 0c-2.289.021-4.539.072-6.798.219-38.505 2.349-77.499 8.463-115.08 16.449-43.665 8.922-85.446 20.652-121.092 31.917-15.969 5.166-31.467 10.347-45.078 15.039-20.19 7.512-37.542 14.073-49.74 19.707-12.21 4.695-19.269 8.457-20.67 9.396 0 0-3.303 14.547-20.211 26.757l8.928-1.38-21.111 19.236s39.918-21.582 53.07-25.341c1.407-.468 2.787-.468 3.729-.468 2.814 3.285.027 18.303-3.729 36.147-4.695 23.946-11.277 53.517-7.989 68.544l7.989-7.518.939-.471c12.432 2.859 15.237-7.446 15.237-7.446l5.169 1.878 1.41-2.817h7.518s-.462-88.755 12.69-103.752c.468-.939 3.261-2.352 7.017-4.701 9.39-4.224 25.362-10.785 45.078-18.291 35.688-13.152 82.632-29.112 121.095-39.909 14.082-4.224 27.264-7.518 38.061-9.867 5.634-.939 4.668 4.704 6.546 9.867 1.41 4.695-3.258 10.317-4.197 17.823-.471 6.576-3.288 70.422-3.288 70.422l5.136-1.881 6.576.471 2.352-7.017 5.169 3.288 2.349-3.759 3.288 2.82 4.701-1.41s-1.401-86.397 12.219-95.319c7.512-5.634 30.051-6.579 44.607-6.111 24.888 1.41 50.211 3.3 48.807 16.452-1.407 13.152-16.419 18.765-16.419 18.765l3.288 4.23-4.23.468v6.579l-7.986 2.349 2.205 2.295-15.507 6.108 5.637 1.41-12.648 6.078s54.45-5.166 61.026-42.264c4.401-21.57-31.656-35.262-65.97-34.962zm-315.264 32.178c-7.98 2.349-15.477 4.2-22.524 6.078-92.505 24.888-127.71 54.93-127.71 85.926 0 33.342 34.275 44.607 35.679 50.241 10.836 43.656-103.752 64.335-103.752 64.335l6.579 6.111.468 5.136 9.399 10.806 10.305 1.881 3.288 6.576 18.324-2.349-1.41 7.047c16.431 2.817 92.484-27.246 109.866-60.114 12.681-23.949 5.64-41.319 5.64-41.319-8.421-28.701-43.605-30.084-43.605-55.434-.939-22.536 40.878-43.677 77.025-58.233 22.536-9.39 45.57-16.398 52.146-18.273-1.704-.21-18.144.972-24.861 1.353v-3.288h-7.047zm223.041 0-51.657 13.593-1.41 15.978-2.349 7.05-4.698 68.073 54.009-13.152 1.41-22.524-24.9 7.173v-.126l-6.078 1.881 1.881-17.853 23.937-7.518 2.82-18.768-25.341 5.64.939-14.094h1.848v-.471l27.255-7.518zm-62.952 16.44-46.494 15.036-.471 16.419-2.817 7.518-1.881 46.953-14.064-13.152s4.23-7.026 4.23-20.166c0-13.614-11.289-24.873-22.554-24.873-.939 0-2.352.441-3.759.441-11.739 2.817-36.159 14.103-45.081 18.795l-.342.189c-1.881.936-3.291 1.407-3.291 1.407l2.349 1.881.942 2.817.813.753 3.291 2.349.939 6.579 8.457-2.82s-3.756 18.777-2.349 28.158l-10.776 4.23h-.03l-2.787 1.41 2.787.939h.03l1.38.471v5.637l1.878 2.349v4.23l4.23-1.41-1.41 31.458 2.82-3.291 4.227-1.878 6.108.471v-4.23l6.579.939 1.41-3.759h6.579l.939-24.87s4.671-.942 10.305-3.759c3.285-1.878 6.579-4.701 9.396-8.928l21.612 23.028 7.959-2.352.468-5.637 5.64 2.817 9.825-.501-1.404-2.355 27.264-7.986 3.291-25.812-28.158 8.898 1.41-17.352 23.466-8.46.939-18.324-23.937 7.047 1.41-15.006 27.687-9.867zm-87.804 46.491c4.695.471 9.867 1.887 8.46 8.928-.939 5.166-4.704 9.87-8.46 12.69-4.695 4.227-9.837 6.078-9.837 6.078 0-14.085 3.729-27.225 3.729-27.225s2.82-.471 6.108-.471z" fill="#fefefe"/></g></svg>

<?xml version="1.0" encoding="utf-8"?>
<svg version="1.1" xmlns="http://www.w3.org/2000/svg">
  <g>
    <path d="M 501.492 135.357 C 497.265 136.764 492.591 137.706 487.899 138.645 C 478.977 140.523 468.621 143.346 457.827 146.166 C 446.559 148.98 434.349 152.274 422.151 155.562 C 416.514 157.44 411.375 159.291 405.729 160.698 C 365.352 172.908 326.841 186.552 308.055 194.532 C 303.828 196.41 301.005 198.291 299.127 199.23 C 295.371 202.047 290.199 210.006 290.199 210.006 L 285.501 219.405 C 285.501 219.405 295.845 213.762 308.055 208.599 C 322.137 202.494 338.568 196.89 343.26 201.582 C 349.833 207.684 333.396 276.681 339.501 334.902 C 341.379 328.8 343.26 330.237 343.26 330.237 L 350.778 345.243 L 354.537 338.664 L 363.936 357.93 L 364.404 346.653 L 367.224 349.005 C 363.816 315.321 366.621 202.248 378.852 189.018 C 382.608 185.262 392.955 180.555 405.636 176.325 C 410.802 174.447 416.412 172.566 422.055 171.156 C 434.736 167.4 447.879 164.109 457.731 161.76 L 476.526 157.092 C 476.526 157.092 479.352 149.571 487.806 145.815 C 489.213 145.347 490.155 144.876 491.094 144.876 C 491.094 144.876 487.782 139.704 501.399 135.477 L 501.492 135.357 Z M 487.899 164.928 C 479.916 165.399 469.095 167.28 457.827 170.097 C 445.146 172.914 432.003 176.679 422.151 179.964 C 418.863 180.906 415.569 182.316 413.223 182.784 C 424.491 187.479 421.68 193.59 421.68 193.59 L 422.151 194.061 L 429.201 198.759 C 429.201 198.759 435.783 196.881 441.891 196.41 C 445.176 232.095 440.01 271.53 440.01 271.53 L 422.187 275.76 L 422.157 275.76 L 420.309 276.231 L 422.157 278.988 L 422.157 279.048 L 432.963 291.699 L 431.553 297.81 L 435.312 297.339 C 435.312 297.339 433.425 312.825 422.16 333.015 L 422.16 333.078 C 419.82 337.752 417.003 342.441 413.265 347.583 C 415.605 348.519 418.881 348.045 422.16 347.112 C 422.169 347.109 422.181 347.115 422.19 347.112 C 428.283 345.234 433.908 341.943 433.908 341.943 L 454.551 334.896 L 454.551 340.065 L 457.839 338.184 L 462.537 335.367 C 462.537 335.367 474.285 309.093 474.285 280.455 C 474.285 280.455 480.87 278.571 487.908 274.344 C 491.196 272.937 494.46 270.585 497.745 267.768 C 522.636 295.935 540.006 323.652 540.006 323.652 L 548.934 322.713 L 551.283 316.602 L 559.743 317.544 L 561.621 313.785 L 562.563 315.192 L 571.02 321.771 L 575.718 316.134 L 582.267 317.541 C 582.267 317.541 574.77 309.546 562.56 296.4 C 551.292 284.193 535.323 267.291 517.95 249.909 C 525.465 243.336 534.402 235.353 535.332 214.233 C 535.803 191.226 521.721 167.742 494.013 164.925 L 487.899 164.928 Z M 478.938 188.364 C 482.124 188.313 485.127 188.751 487.899 189.369 C 497.76 192.183 503.847 199.683 503.847 210.006 C 502.908 223.62 495.885 233.505 487.899 240.081 C 484.143 243.366 479.907 246.159 476.622 247.569 C 476.622 247.569 475.209 212.844 473.802 188.895 C 475.095 188.661 476.328 188.499 477.561 188.424 C 478.023 188.397 478.485 188.37 478.941 188.364 L 478.938 188.364 Z M 280.359 194.97 C 278.013 195.912 275.661 196.38 273.312 197.322 L 273.312 197.352 C 256.881 202.518 241.383 207.657 228.702 212.358 C 209.457 219.873 196.785 225.51 196.785 225.51 L 198.165 216.582 C 198.165 216.582 185.976 224.571 174.228 226.452 C 169.917 226.932 165.606 226.932 162.399 225.057 C 144.054 231.633 68.934 278.085 53.937 301.14 C 51.588 310.533 42.189 326.04 42.189 326.04 L 35.61 346.68 L 40.308 346.209 L 35.142 356.544 L 39.372 355.137 L 39.372 361.245 C 39.372 361.245 62.376 330.249 83.508 312.408 C 80.691 328.836 80.688 345.267 80.688 345.267 L 73.641 352.785 L 66.624 367.35 L 72.231 367.35 L 71.76 372.99 L 76.458 370.638 L 74.58 377.187 L 78.339 377.187 C 78.339 377.187 79.281 400.221 82.098 413.364 L 97.134 418.5 L 99.486 415.713 L 107.943 422.259 L 114.489 417.09 C 114.489 417.09 112.14 372.504 113.082 353.247 C 120.594 345.264 146.913 330.252 146.913 330.252 L 149.262 321.792 L 145.503 312.396 L 155.337 297.831 C 136.554 307.692 113.547 321.798 113.547 321.798 C 113.547 321.798 115.899 290.814 119.187 285.18 C 122.472 279.543 144.075 265.902 174.129 248.529 C 190.56 239.139 208.884 229.755 228.6 219.429 C 243.156 212.388 258.18 205.356 273.207 198.321 L 273.207 198.288 C 275.556 197.349 277.908 195.939 280.257 195 L 280.359 194.97 Z M 430.623 203.898 L 382.728 217.992 L 379.908 324.549 L 405.75 317.034 L 420.285 312.333 L 420.285 283.704 L 400.116 286.524 L 400.587 271.485 L 405.756 270.075 L 418.878 265.848 L 418.407 260.208 L 422.637 244.731 L 405.756 248.931 L 400.587 250.338 L 401.997 234.861 L 405.756 233.922 L 411.018 232.386 L 424.521 228.753 L 429.222 222.645 L 424.521 220.764 L 430.623 203.898 Z M 325.368 227.385 C 325.368 227.385 320.667 237.72 315.972 230.205 C 314.562 235.368 310.8 237.255 307.983 237.723 C 306.102 237.723 304.692 237.723 304.692 237.723 L 303.285 271.995 L 292.479 276.693 L 295.767 239.133 L 290.598 243.834 L 286.368 239.133 L 278.883 250.38 L 276.531 246.15 L 273.243 248.97 L 270.894 251.319 C 270.894 251.319 262.908 319.887 265.725 349.938 C 269.013 346.182 270.426 352.758 270.426 352.758 L 273.243 348.999 L 274.182 347.589 L 282.171 366.384 L 285.429 355.107 L 290.598 357.456 L 290.598 303.918 L 302.817 300.159 L 303.288 346.65 L 307.986 349.002 L 313.098 351.306 L 314.1 345.192 L 326.733 358.824 C 326.733 358.824 321.57 280.875 329.55 229.212 C 326.733 232.029 325.353 227.331 325.353 227.331 L 325.368 227.385 Z M 260.112 247.995 C 260.112 247.995 244.623 251.292 228.654 260.214 C 212.226 269.604 194.853 286.047 193.449 312.342 C 190.632 355.074 223.02 351.306 228.654 350.844 C 229.125 350.844 230.064 350.373 230.064 350.373 L 230.064 371.514 L 231.945 366.348 L 235.704 368.697 L 241.311 365.406 L 247.887 370.575 L 248.892 366.465 L 253.119 367.407 L 255 311.991 L 263.457 308.703 L 261.579 290.85 L 228.717 304.944 L 221.67 307.764 L 228.717 319.512 L 229.188 319.98 L 232.947 319.041 L 232.947 327.498 C 232.947 327.498 231.066 327.969 228.717 327.969 C 224.022 327.03 216.027 324.198 216.972 309.645 C 217.44 299.319 222.612 292.284 228.717 287.121 C 238.581 279.138 251.715 275.373 257.349 270.672 L 253.119 268.791 L 259.227 265.971 L 260.112 247.995 Z M 180.759 270.549 C 178.881 276.183 176.529 280.419 174.18 283.239 C 169.485 290.754 164.313 293.076 164.313 293.076 C 164.313 293.076 153.978 337.224 157.734 386.052 L 161.493 384.171 L 165.255 387.459 L 169.014 386.052 C 169.014 386.052 171.363 391.221 174.18 394.509 C 176.997 397.326 180.291 398.736 183.579 396.858 C 185.925 395.451 180.297 327.381 191.568 283.686 C 191.568 283.686 185.454 288.84 180.759 270.534 L 180.759 270.549 Z" stroke-miterlimit="4" stroke-dasharray="none" stroke-width="1.87399995" style="fill: rgb(255, 255, 255);"/>
    <path d="M 533.571 0 C 531.282 0.021 529.032 0.072 526.773 0.219 C 488.268 2.568 449.274 8.682 411.693 16.668 C 368.028 25.59 326.247 37.32 290.601 48.585 C 274.632 53.751 259.134 58.932 245.523 63.624 C 225.333 71.136 207.981 77.697 195.783 83.331 C 183.573 88.026 176.514 91.788 175.113 92.727 C 175.113 92.727 171.81 107.274 154.902 119.484 L 163.83 118.104 L 142.719 137.34 C 142.719 137.34 182.637 115.758 195.789 111.999 C 197.196 111.531 198.576 111.531 199.518 111.531 C 202.332 114.816 199.545 129.834 195.789 147.678 C 191.094 171.624 184.512 201.195 187.8 216.222 L 195.789 208.704 L 196.728 208.233 C 209.16 211.092 211.965 200.787 211.965 200.787 L 217.134 202.665 L 218.544 199.848 L 226.062 199.848 C 226.062 199.848 225.6 111.093 238.752 96.096 C 239.22 95.157 242.013 93.744 245.769 91.395 C 255.159 87.171 271.131 80.61 290.847 73.104 C 326.535 59.952 373.479 43.992 411.942 33.195 C 426.024 28.971 439.206 25.677 450.003 23.328 C 455.637 22.389 454.671 28.032 456.549 33.195 C 457.959 37.89 453.291 43.512 452.352 51.018 C 451.881 57.594 449.064 121.44 449.064 121.44 L 454.2 119.559 L 460.776 120.03 L 463.128 113.013 L 468.297 116.301 L 470.646 112.542 L 473.934 115.362 L 478.635 113.952 C 478.635 113.952 477.234 27.555 490.854 18.633 C 498.366 12.999 520.905 12.054 535.461 12.522 C 560.349 13.932 585.672 15.822 584.268 28.974 C 582.861 42.126 567.849 47.739 567.849 47.739 L 571.137 51.969 L 566.907 52.437 L 566.907 59.016 L 558.921 61.365 L 561.126 63.66 L 545.619 69.768 L 551.256 71.178 L 538.608 77.256 C 538.608 77.256 593.058 72.09 599.634 34.992 C 604.035 13.422 567.978 -0.27 533.664 0.03 Z M 218.307 32.178 C 210.327 34.527 202.83 36.378 195.783 38.256 C 103.278 63.144 68.073 93.186 68.073 124.182 C 68.073 157.524 102.348 168.789 103.752 174.423 C 114.588 218.079 0 238.758 0 238.758 L 6.579 244.869 L 7.047 250.005 L 16.446 260.811 L 26.751 262.692 L 30.039 269.268 L 48.363 266.919 L 46.953 273.966 C 63.384 276.783 139.437 246.72 156.819 213.852 C 169.5 189.903 162.459 172.533 162.459 172.533 C 154.038 143.832 118.854 142.449 118.854 117.099 C 117.915 94.563 159.732 73.422 195.879 58.866 C 218.415 49.476 241.449 42.468 248.025 40.593 C 246.321 40.383 229.881 41.565 223.164 41.946 L 223.164 38.658 L 216.117 38.658 Z M 441.348 32.178 L 389.691 45.771 L 388.281 61.749 L 385.932 68.799 L 381.234 136.872 L 435.243 123.72 L 436.653 101.196 L 411.753 108.369 L 411.753 108.243 L 405.675 110.124 L 407.556 92.271 L 431.493 84.753 L 434.313 65.985 L 408.972 71.625 L 409.911 57.531 L 411.759 57.531 L 411.759 57.06 L 439.014 49.542 Z M 378.396 48.618 L 331.902 63.654 L 331.431 80.073 L 328.614 87.591 L 326.733 134.544 L 312.669 121.392 C 312.669 121.392 316.899 114.366 316.899 101.226 C 316.899 87.612 305.61 76.353 294.345 76.353 C 293.406 76.353 291.993 76.794 290.586 76.794 C 278.847 79.611 254.427 90.897 245.505 95.589 L 245.163 95.778 C 243.282 96.714 241.872 97.185 241.872 97.185 L 244.221 99.066 L 245.163 101.883 L 245.976 102.636 L 249.267 104.985 L 250.206 111.564 L 258.663 108.744 C 258.663 108.744 254.907 127.521 256.314 136.902 L 245.538 141.132 L 245.508 141.132 L 242.721 142.542 L 245.508 143.481 L 245.538 143.481 L 246.918 143.952 L 246.918 149.589 L 248.796 151.938 L 248.796 156.168 L 253.026 154.758 L 251.616 186.216 L 254.436 182.925 L 258.663 181.047 L 264.771 181.518 L 264.771 177.288 L 271.35 178.227 L 272.76 174.468 L 279.339 174.468 L 280.278 149.598 C 280.278 149.598 284.949 148.656 290.583 145.839 C 293.868 143.961 297.162 141.138 299.979 136.911 L 321.591 159.939 L 329.55 157.587 L 330.018 151.95 L 335.658 154.767 L 345.483 154.266 L 344.079 151.911 L 371.343 143.925 L 374.634 118.113 L 346.476 127.011 L 347.886 109.659 L 371.352 101.199 L 372.291 82.875 L 348.354 89.922 L 349.764 74.916 L 377.451 65.049 Z M 290.592 95.109 C 295.287 95.58 300.459 96.996 299.052 104.037 C 298.113 109.203 294.348 113.907 290.592 116.727 C 285.897 120.954 280.755 122.805 280.755 122.805 C 280.755 108.72 284.484 95.58 284.484 95.58 C 284.484 95.58 287.304 95.109 290.592 95.109 Z" stroke-miterlimit="4" stroke-dasharray="none" stroke-width="1.87399995" style="fill: rgb(254, 254, 254);"/>
  </g>
</svg>
